X:1
T:Violet Evergarden OP - Sincerely
T:Violet Evergarden OP - Sincerely
T:TRUE
T:Short + simplified version
C:TRUE
%%score { 1 | 2 }
L:1/8
Q:1/4=65
M:4/4
K:D
V:1 treble nm="Piano" snm="Pno."
V:2 treble 
V:1
 def[da]- [da]7/2 A/ | efgf- f2 e2 | dfa[ec']- [ec']d'ad | [EGd]4 !fermata![EAc]3 z/ A/ | %4
[Q:1/4=72] ed/e/- ef/e/- ed/d/- d>A | ed/e/- ed/e/- ef/ f2 A/ | def e2 d/ d2 A/ | %7
 dA/de/ f2 F G z/ A/ | ed/e/- ef/ed/ d2- d/A/ | ed/e/- ea/e/- ed/ d2 A/ | de<fg/ a2 f/ e/d/!f! z | %11
 [fd'][fd']<[ec'][db]<[ca][Ad]/[Ad]e/[Adf] | z d'/e'/ a/ z d/ [Af][Ag]/[Af][Ae]/[Ad] | %13
 d'/e'/a d/e/f<[cea]f/ed/d | z!<(! CDF [FA][df][fa][fad']!<)! | %15
!ff! [fd'][fd']<[ec'][db]<[ca][Ace]/ [Ace]2 e/ | [fc'][fb]<[fc'][fd']/ [fbd']2 z3/2 d/e/ | %17
 fg<fe<d z/ d/ d/[Ada][Ada]/ |[K:F]!fff! [Ada][Gg]/[Gg][Ff][Dd]/ [Ff]>[Gceg] [Gceg]2 | %19
 [Ff][Gg][Aa] [cc']2 [Gg]<[Ff] z/ [Dd]/ | [Ff][Dd]/[Ff][Gg]<[Aa]c/f/a/ g/G/c/e/ | %21
 [Ff][Gg][Aa] [cc']2 [Gg]<[Ff] z/ [Cc]/ | [Ff][Aa]<[Gg][Ff]/[Ff]/ z B/[Ec]/ z/ G3/2 | %23
 [Ff][Gg][Aa] [cc']2 [Gg]<[Ff] z/ [Ff]/ | [Gg][Ff]<[Gg][Bb]/ [Aa]2 [Gg]/ [Gg]>[Ff] | %25
 [Ff][Ee]<[Ff][dd']<[cc'][Ff]<[Ff] z/ [Cc]/ | [Gg][Aa]<[Gg][Ff]<[Ff] z G,g/f/ | %27
!mp! fe<fd'<c'f/ f2 c/ | g6 f2 |[Q:1/4=65] !arpeggio![FAf]ga c'2 f2 z/ f/ | gab a2- a g2 | %31
 fac' !arpeggio![fc'e']2 f'c'f |[Q:1/4=60] [cg]6 f2 |!p! !arpeggio![Fcf]8- | !fermata![Fcf]8 |] %35
V:2
!ped! B,FB G,2 D3!ped-up! |!ped! A,EA[DA]- [DA]2 [CA]2!ped-up! | %2
[K:bass]!ped! B,,F,D G,,2 D,B, z!ped-up! |!ped! A,,4 A,,,2 z2!ped-up! | %4
 G,,/D,/G,/B,/ z2 A,,/E,/A,/C/ z2 | B,,/F,/B,/D/ z2 F,,/D,/F,/A,/ z2 | %6
 G,,/D,/G,/B,/ z2 A,,/E,/A,/C/ z2 | B,,/F,/B,/D/ z2 F,,/D,/F,/A,/ z F,, | %8
!ped! G,,/D,/G,/B,G,/D,/G,,/ A,,/E,/A,/CA,/E,/A,,/!ped-up! | %9
!ped! B,,/F,/B,/DB,/F,/B,,/ D,,/A,,/D,/F,D,/A,,/D,,/!ped-up! | %10
!ped! E,,/B,,/G, F,,/D,/A, G,,/D,/B, z [A,,,A,,]!ped-up! | %11
!ped! G,,/D,/G,/B,G,/B,/G,/ A,,/E,/A,/CA,/C/A,/!ped-up! | %12
!ped! B,,/F,/A,/B, z/ B,, D,,/A,,/D,/F,D,/F,/D,/!ped-up! | %13
!ped! G,,/D,/G,/B,G,/B,/G,/ A,,/E,/A,/CA,/C/A,/!ped-up! | %14
!ped! B,,/F,/B,/F,/ B,/F,/B,/F,/ B,/F,/B,/F,/ B,/F,/B,,!ped-up! | %15
!ped! G,,/D,/G,/B,G,/B,/G,/ A,,/E,/A,/CA,/C/A,/!ped-up! | %16
!ped! F,,/C,/F,/_B,F,/B,/F,/ B,,/F,/=B,/C/ D2!ped-up! | %17
!ped! [G,B,DG]4 [A,CEA]2 [A,,A,][C,,C,]!ped-up! | %18
[K:F]!ped! [B,,,B,,]2 [D,F,B,][B,,,B,,] [C,,C,]2 [E,G,C][C,,C,]!ped-up! | %19
!ped! [D,,D,]2 [F,A,D] [A,,,A,,]3 [F,A,C]2!ped-up! | %20
!ped! [B,,,B,,]2 [D,F,B,] [F,,F,]3 [E,,E,]2!ped-up! | %21
!ped! [D,,D,]2 [F,A,D] [A,,,A,,]3 [F,A,C]2!ped-up! | %22
!ped! [B,,B,]2 [C,C]2 [F,,F,]2 [E,,E,]2!ped-up! | %23
!ped! [D,,D,]2 [F,A,D] [A,,,A,,]3 [F,A,C]2!ped-up! | %24
!ped! [C,,C,]2 [E,G,C]2 [^C,,^C,]2 [C,E,A,]2!ped-up! | %25
!ped! [D,,D,]2 [F,A,D]2 [B,,,B,,]2 [D,F,B,]2!ped-up! | %26
!ped! [C,,C,]2 [E,G,C]2 F,,/C,/F,/!>(!A,/ E,2!ped-up!!>)! |!ped! [D,F,A,C]4 [B,,D,F,A,]4!ped-up! | %28
 [C,E,G,C]8 |!ped! D,A,D B,,2 F, C2!ped-up! |!ped! C,G,C [F,C]2- [F,C] [E,C]2!ped-up! | %31
!ped! D,A,D B,,2 F, B,2!ped-up! |!ped! C,G,DF [CG]2 z2!ped-up! | %33
!ped! F,,C,F,A, C!8va(!FAc!ped-up!!8va)! |[K:treble] !arpeggio!!fermata![Acf]8 |] %35

